src/assets/Imgs/profile/desc.svg

<svg fill="none" height="16" viewBox="0 0 16 16" width="16" xmlns="http://www.w3.org/2000/svg"><path d="m10.6673 1.3335h-5.33332c-2.66666 0-4 1.33333-4 4v8.6667c0 .3666.3.6666.66667.6666h8.66665c2.6667 0 4-1.3333 4-4v-5.3333c0-2.66667-1.3333-4-4-4zm-3.25998 9.7733c-.16667.1667-.47334.32-.7.3534l-1.38667.1933c-.05333.0067-.10667.0133-.15333.0133-.23334 0-.44667-.08-.6-.2333-.18667-.1867-.26667-.46-.22-.7533l.19333-1.3867c.03333-.22667.18667-.54.35333-.7l2.51334-2.51334c.04.12.09333.24.15333.37334.06.12.12.24.18667.35333.05333.09333.11333.18667.16666.25333.06667.1.13334.18667.18.23334.02667.04.05334.06666.06.08.14667.16666.3.32666.44667.44666.04.04.06667.06.07333.06667.08667.06667.16667.14.24667.18667.08667.06666.18.12666.27333.18.11334.06666.23334.13333.36.19333.12667.06.24667.10667.36667.14667zm3.62668-3.61997-.52.52c-.0333.03333-.08.05333-.1267.05333-.0133 0-.04 0-.0533-.00666-1.14668-.32667-2.06002-1.24-2.38668-2.38667-.02-.06 0-.12667.04666-.17333l.52667-.52667c.86-.86 1.67335-.84 2.51335 0 .4266.42667.64.84.6333 1.26667 0 .42-.2067.82666-.6333 1.25333z" fill="#f9b617"/></svg>

<svg width="16" height="16" viewBox="0 0 16 16" fill="none" xmlns="http://www.w3.org/2000/svg">
<g id="message">
<g id="message-edit">
<path id="Vector" d="M10.6673 1.3335H5.33398C2.66732 1.3335 1.33398 2.66683 1.33398 5.3335V14.0002C1.33398 14.3668 1.63398 14.6668 2.00065 14.6668H10.6673C13.334 14.6668 14.6673 13.3335 14.6673 10.6668V5.3335C14.6673 2.66683 13.334 1.3335 10.6673 1.3335ZM7.40732 11.1068C7.24065 11.2735 6.93398 11.4268 6.70732 11.4602L5.32065 11.6535C5.26732 11.6602 5.21398 11.6668 5.16732 11.6668C4.93398 11.6668 4.72065 11.5868 4.56732 11.4335C4.38065 11.2468 4.30065 10.9735 4.34732 10.6802L4.54065 9.2935C4.57398 9.06683 4.72732 8.7535 4.89398 8.5935L7.40732 6.08016C7.44732 6.20016 7.50065 6.32016 7.56065 6.4535C7.62065 6.5735 7.68065 6.6935 7.74732 6.80683C7.80065 6.90016 7.86065 6.9935 7.91398 7.06016C7.98065 7.16016 8.04732 7.24683 8.09398 7.2935C8.12065 7.3335 8.14732 7.36016 8.15398 7.3735C8.30065 7.54016 8.45398 7.70016 8.60065 7.82016C8.64065 7.86016 8.66732 7.88016 8.67398 7.88683C8.76065 7.9535 8.84065 8.02683 8.92065 8.0735C9.00732 8.14016 9.10065 8.20016 9.19398 8.2535C9.30732 8.32016 9.42732 8.38683 9.55398 8.44683C9.68065 8.50683 9.80065 8.5535 9.92065 8.5935L7.40732 11.1068ZM11.034 7.48683L10.514 8.00683C10.4807 8.04016 10.434 8.06016 10.3873 8.06016C10.374 8.06016 10.3473 8.06016 10.334 8.0535C9.18732 7.72683 8.27398 6.8135 7.94732 5.66683C7.92732 5.60683 7.94732 5.54016 7.99398 5.4935L8.52065 4.96683C9.38065 4.10683 10.194 4.12683 11.034 4.96683C11.4606 5.3935 11.674 5.80683 11.6673 6.2335C11.6673 6.6535 11.4606 7.06016 11.034 7.48683Z" fill="#F9B617"/>
</g>
</g>
</svg>
